public/img/threema-messenger.svg

<svg width="24" height="24" viewBox="0 0 24 24" fill="none" xmlns="http://www.w3.org/2000/svg">
<path d="M12 0C8.8174 0 5.76515 1.26428 3.51472 3.51472C1.26428 5.76515 0 8.8174 0 12C0 15.1826 1.26428 18.2348 3.51472 20.4853C5.76515 22.7357 8.8174 24 12 24C15.1826 24 18.2348 22.7357 20.4853 20.4853C22.7357 18.2348 24 15.1826 24 12C24 8.8174 22.7357 5.76515 20.4853 3.51472C18.2348 1.26428 15.1826 0 12 0V0ZM12 3.73828C15.9234 3.73828 19.1055 6.53763 19.1055 9.99023C19.1055 13.4428 15.9234 16.2422 12 16.2422C10.9301 16.2453 9.87087 16.0289 8.88672 15.6094L5.32812 16.5L6.08789 13.457C5.33487 12.4645 4.89453 11.2733 4.89453 9.99023C4.89453 6.53763 8.07658 3.73828 12 3.73828ZM11.998 6.65234C11.7342 6.65251 11.4723 6.70575 11.2285 6.80664C10.9841 6.90777 10.7613 7.05523 10.5742 7.24219C10.3871 7.42914 10.24 7.65217 10.1387 7.89648C10.0374 8.1408 9.98446 8.40153 9.98437 8.66602V9.47266H9.90625C9.86377 9.47266 9.8205 9.47984 9.78125 9.49609C9.742 9.51235 9.70583 9.53637 9.67578 9.56641C9.64574 9.59644 9.62368 9.63263 9.60742 9.67187C9.59116 9.71112 9.58203 9.75244 9.58203 9.79492V12.6348C9.58203 12.8137 9.72729 12.959 9.90625 12.959H14.0937C14.2727 12.959 14.418 12.8157 14.418 12.6367V9.79297C14.418 9.70717 14.3849 9.62512 14.3242 9.56445C14.2636 9.50378 14.1795 9.4707 14.0937 9.4707H14.0156V8.66406C14.0153 8.39949 13.9629 8.13886 13.8613 7.89453C13.7599 7.6502 13.6111 7.42713 13.4238 7.24023C13.2365 7.05334 13.0141 6.90568 12.7695 6.80469C12.5256 6.70393 12.2639 6.65233 12 6.65234H11.998ZM12 7.45898C12.669 7.45898 13.209 7.99972 13.209 8.66602V9.4707H10.791V8.66602C10.791 7.99972 11.3323 7.45898 12 7.45898Z" fill="#B8B8B8"/>
<path d="M7.63234 20.262C8.29974 20.262 8.84078 19.7209 8.84078 19.0535C8.84078 18.3861 8.29974 17.8451 7.63234 17.8451C6.96494 17.8451 6.4239 18.3861 6.4239 19.0535C6.4239 19.7209 6.96494 20.262 7.63234 20.262Z" fill="#519354"/>
<path d="M12.0069 20.262C12.6743 20.262 13.2153 19.7209 13.2153 19.0535C13.2153 18.3861 12.6743 17.8451 12.0069 17.8451C11.3395 17.8451 10.7985 18.3861 10.7985 19.0535C10.7985 19.7209 11.3395 20.262 12.0069 20.262Z" fill="#519354"/>
<path d="M16.3602 20.262C17.0276 20.262 17.5686 19.7209 17.5686 19.0535C17.5686 18.3861 17.0276 17.8451 16.3602 17.8451C15.6928 17.8451 15.1517 18.3861 15.1517 19.0535C15.1517 19.7209 15.6928 20.262 16.3602 20.262Z" fill="#519354"/>
</svg>

<?xml version="1.0" encoding="utf-8"?>
<!-- Generator: Adobe Illustrator 24.3.0, SVG Export Plug-In . SVG Version: 6.00 Build 0)  -->
<svg version="1.1" id="Layer_1" xmlns="http://www.w3.org/2000/svg" xmlns:xlink="http://www.w3.org/1999/xlink" x="0px" y="0px"
	 viewBox="0 0 24 24" style="enable-background:new 0 0 24 24;" xml:space="preserve">
<style type="text/css">
	.st0{fill:#D4BEC8;}
</style>
<path d="M12,0C8.8,0,5.8,1.3,3.5,3.5C1.3,5.8,0,8.8,0,12s1.3,6.2,3.5,8.5C5.8,22.7,8.8,24,12,24s6.2-1.3,8.5-3.5
	c2.3-2.3,3.5-5.3,3.5-8.5s-1.3-6.2-3.5-8.5C18.2,1.3,15.2,0,12,0L12,0z M12,3.7c3.9,0,7.1,2.8,7.1,6.3s-3.2,6.3-7.1,6.3
	c-1.1,0-2.1-0.2-3.1-0.6l-3.6,0.9l0.8-3c-0.8-1-1.2-2.2-1.2-3.5C4.9,6.5,8.1,3.7,12,3.7z M12,6.7c-0.3,0-0.5,0.1-0.8,0.2
	C11,7,10.7,7.1,10.5,7.3c-0.2,0.2-0.3,0.4-0.4,0.7C10,8.1,10,8.4,10,8.7v0.8H9.9H9.8c0,0-0.1,0-0.1,0.1L9.6,9.7v0.1v2.8
	c0,0.2,0.1,0.3,0.3,0.3h4.2c0.2,0,0.3-0.1,0.3-0.3V9.8c0-0.1,0-0.2-0.1-0.2c-0.1-0.1-0.1-0.1-0.2-0.1H14V8.7c0-0.3-0.1-0.5-0.2-0.8
	c-0.1-0.2-0.3-0.5-0.4-0.7C13.2,7,13,6.9,12.7,6.8C12.5,6.7,12.3,6.7,12,6.7L12,6.7z M12,7.5c0.7,0,1.2,0.5,1.2,1.2v0.8h-2.4V8.7
	C10.8,8,11.3,7.5,12,7.5z"/>
<path class="st0" d="M7.6,20.3c0.7,0,1.2-0.5,1.2-1.2s-0.5-1.2-1.2-1.2s-1.2,0.5-1.2,1.2C6.4,19.7,7,20.3,7.6,20.3z"/>
<path class="st0" d="M12,20.3c0.7,0,1.2-0.5,1.2-1.2s-0.5-1.2-1.2-1.2s-1.2,0.5-1.2,1.2C10.8,19.7,11.3,20.3,12,20.3z"/>
<path class="st0" d="M16.4,20.3c0.7,0,1.2-0.5,1.2-1.2s-0.5-1.2-1.2-1.2c-0.7,0-1.2,0.5-1.2,1.2C15.2,19.7,15.7,20.3,16.4,20.3z"/>
</svg>
